brandFactory_export/3.Masa/Regalo _3Masa.svg

<?xml version="1.0" encoding="UTF-8"?>
<svg width="24px" height="24px" viewBox="0 0 24 24" version="1.1" xmlns="http://www.w3.org/2000/svg" xmlns:xlink="http://www.w3.org/1999/xlink">
    <title>3.Masa/Regalo _3Masa</title>
    <g id="Symbols" stroke="none" stroke-width="1" fill="none" fill-rule="evenodd">
        <g id="3.Masa/Regalo-_3Masa" fill="#5CB615" fill-rule="nonzero">
            <path d="M1.4789916,21.697479 L1.4789916,14.5411765 L10.994958,14.5411765 L10.994958,23.6571429 L3.22016807,23.6571429 C2.2789916,23.6571429 1.4789916,22.7663866 1.4789916,21.697479 Z M12.497479,23.6571429 L12.497479,14.5411765 L22.0672269,14.5411765 L22.0672269,21.707563 C22.0672269,22.7663866 21.2773109,23.6605042 20.3226891,23.6605042 L12.497479,23.6605042 L12.497479,23.6571429 Z M17.7714286,3.89243697 C17.8655462,3.46218487 17.7344538,2.97815126 17.3882353,2.45714286 C17.0420168,1.93613445 16.6420168,1.62352941 16.205042,1.53277311 C15.7647059,1.43865546 15.2739496,1.56638655 14.7394958,1.9092437 C13.8890756,2.45042017 13.0218487,4.31596639 12.6016807,5.50252101 C13.8756303,5.6 15.9865546,5.58655462 16.8268908,5.05210084 C17.3613445,4.71260504 17.6806723,4.32268908 17.7714286,3.89243697 Z M6.46722689,5.05210084 C7.31092437,5.58655462 9.41848739,5.60336134 10.692437,5.50252101 C10.2722689,4.31932773 9.40504202,2.45042017 8.55462185,1.9092437 C8.13445378,1.64033613 7.73445378,1.50588235 7.37142857,1.50588235 C7.27394958,1.50588235 7.17983193,1.51596639 7.08907563,1.53613445 C6.6487395,1.62689076 6.25210084,1.9394958 5.90252101,2.4605042 C5.55630252,2.98151261 5.42521008,3.46554622 5.51932773,3.89579832 C5.61344538,4.32268908 5.93277311,4.71260504 6.46722689,5.05210084 Z M21.8823529,5.67731092 C22.7932773,5.67731092 23.6235294,6.61176471 23.6235294,7.63361345 L23.6235294,11.1764706 C23.6235294,12.107563 23.0084034,12.9109244 22.2184874,13.0957983 C22.1781513,13.0890756 22.1411765,13.0722689 22.1008403,13.0722689 L12.497479,13.0722689 L12.497479,6.41008403 L10.994958,6.41008403 L10.994958,13.0689076 L1.33781513,13.0689076 C0.581512605,12.8571429 0,12.0773109 0,11.1731092 L0,7.6302521 C0,6.60840336 0.830252101,5.67394958 1.74117647,5.67394958 L4.90084034,5.67394958 C4.46722689,5.23697479 4.16806723,4.7394958 4.05042017,4.19495798 C3.87563025,3.38151261 4.07731092,2.50084034 4.64201681,1.65378151 C5.20672269,0.803361345 5.94285714,0.265546218 6.77647059,0.0907563025 C7.61008403,-0.0840336134 8.50756303,0.121008403 9.37478992,0.672268908 C10.3428571,1.28739496 11.1226891,2.66218487 11.6470588,3.86218487 C12.1747899,2.65882353 12.9512605,1.28739496 13.9193277,0.672268908 C14.7865546,0.121008403 15.687395,-0.0840336134 16.5176471,0.0907563025 C17.3478992,0.262184874 18.087395,0.803361345 18.6521008,1.65378151 C19.2168067,2.50420168 19.4218487,3.38151261 19.2436975,4.19495798 C19.1260504,4.7394958 18.8268908,5.23361345 18.389916,5.67394958 L21.8823529,5.67394958 L21.8823529,5.67731092 Z" id="Regalo-_3Masa"></path>
        </g>
    </g>
</svg>

<svg width="24" height="24" viewBox="0 0 24 24" xmlns="http://www.w3.org/2000/svg"><path d="M1.479 21.697v-7.156h9.516v9.116H3.22c-.941 0-1.741-.89-1.741-1.96zm11.018 1.96v-9.116h9.57v7.167c0 1.058-.79 1.953-1.744 1.953h-7.826v-.004zm5.274-19.765c.095-.43-.037-.914-.383-1.435-.346-.52-.746-.833-1.183-.924-.44-.094-.931.033-1.466.376-.85.541-1.717 2.407-2.137 3.594 1.274.097 3.385.084 4.225-.45.534-.34.854-.73.944-1.16zM6.467 5.052c.844.535 2.951.551 4.225.45-.42-1.183-1.287-3.052-2.137-3.593-.42-.269-.82-.403-1.184-.403-.097 0-.191.01-.282.03-.44.09-.837.403-1.186.925-.347.52-.478 1.005-.384 1.435.094.427.414.817.948 1.156zm15.415.625c.911 0 1.742.935 1.742 1.957v3.542c0 .932-.616 1.735-1.406 1.92-.04-.007-.077-.024-.117-.024h-9.604V6.41h-1.502v6.659H1.338C.582 12.857 0 12.077 0 11.173V7.63c0-1.022.83-1.956 1.741-1.956h3.16c-.434-.437-.733-.935-.85-1.479-.175-.813.026-1.694.591-2.541C5.207.804 5.942.266 6.776.09c.834-.175 1.732.03 2.599.581.968.615 1.748 1.99 2.272 3.19.528-1.203 1.304-2.575 2.272-3.19.868-.551 1.768-.756 2.599-.581.83.171 1.57.712 2.134 1.563.565.85.77 1.728.592 2.541-.118.544-.417 1.039-.854 1.479h3.492v.003z" fill="#5CB615" fill-rule="nonzero"/></svg>
